img/Swimming-icon.svg

<svg width="24" height="24" viewBox="0 0 24 24" fill="none" xmlns="http://www.w3.org/2000/svg">
<circle cx="12" cy="12" r="12" fill="#007AE9"/>
<g clip-path="url(#clip0)">
<path d="M6.77839 9.3653L10.018 9.78178C10.1311 10.0689 10.7008 11.4819 10.8079 11.7348C10.8079 11.7348 10.8079 11.7348 10.8064 11.7348C9.86781 12.1989 8.92923 12.6615 7.99066 13.1255C8.31641 13.066 8.64662 13.0363 8.97832 13.0363C9.41265 13.0363 9.83806 13.0883 10.2441 13.191C11.0637 13.3992 11.8045 13.7324 12.5199 14.0552C13.158 14.3423 13.7619 14.6145 14.3643 14.7707C14.4491 14.793 14.5309 14.8123 14.6127 14.8286C13.8988 13.3665 11.9785 9.42628 11.5992 8.55911C11.4207 8.15007 11.1753 7.99835 10.8272 7.95372L7.02235 7.46436C6.49728 7.39742 6.01684 7.76779 5.94842 8.29286C5.88295 8.81792 6.25333 9.29837 6.77839 9.3653Z" fill="white"/>
<path d="M5.24802 16.1988C5.35363 16.2746 5.47411 16.3103 5.5946 16.3103C5.62137 16.3103 5.64666 16.3088 5.67194 16.3044C5.82961 16.2835 5.97836 16.2002 6.07801 16.0619C6.46326 15.5249 7.05972 15.1025 7.75436 14.8705C8.15299 14.7381 8.56948 14.6712 8.97852 14.6712C10.4615 14.6712 11.7333 15.5577 13.0719 16.0678C13.7889 16.3415 14.5371 16.5438 15.3507 16.5438C15.6928 16.5438 16.0468 16.5081 16.4142 16.4263C17.2784 16.2359 18.0192 15.8254 18.5547 15.2498C18.6826 15.1114 18.7986 14.9657 18.9012 14.8095C19.0827 14.5358 19.0068 14.1669 18.7331 13.9854C18.632 13.9185 18.519 13.8873 18.4059 13.8873C18.2125 13.8873 18.0236 13.981 17.9091 14.1535C17.863 14.2234 17.8124 14.2903 17.7574 14.3558C17.3855 14.7991 16.8277 15.1174 16.1584 15.2646C15.5411 15.4 14.8598 15.3598 14.2515 15.2022C13.6119 15.0356 12.9931 14.7574 12.3357 14.4614C11.6366 14.1476 10.9152 13.8218 10.1328 13.6225C9.76092 13.5273 9.37121 13.4812 8.97704 13.4812C8.44007 13.4812 7.89418 13.5689 7.37506 13.7415C6.92139 13.8932 6.50045 14.1044 6.12264 14.3707C5.724 14.6518 5.38338 14.9865 5.10969 15.3673C5.09184 15.3926 5.07697 15.4178 5.06358 15.4446C4.93417 15.702 5.00557 16.0247 5.24802 16.1988Z" fill="white"/>
<path d="M16.0202 13.4378C17.1793 13.4378 18.1189 12.4982 18.1189 11.339C18.1189 10.1799 17.1793 9.24023 16.0202 9.24023C14.861 9.24023 13.9214 10.1799 13.9214 11.339C13.9214 12.4982 14.861 13.4378 16.0202 13.4378Z" fill="white"/>
</g>
<defs>
<clipPath id="clip0">
<rect x="5" y="5" width="14" height="14" fill="white"/>
</clipPath>
</defs>
</svg>

<svg xmlns="http://www.w3.org/2000/svg" width="24" height="24" fill="none"><circle cx="12" cy="12" r="12" fill="#007AE9"/><g fill="#fff" clip-path="url(#clip0)"><path d="M6.778 9.365l3.24.417c.113.287.683 1.7.79 1.953h-.002l-2.815 1.39c.325-.059.656-.089.987-.089.435 0 .86.052 1.266.155.82.208 1.56.541 2.276.864.638.287 1.242.56 1.844.716a4.2 4.2 0 00.249.058c-.714-1.463-2.634-5.403-3.014-6.27-.178-.409-.424-.56-.772-.605l-3.805-.49a.96.96 0 00-1.074.829.96.96 0 00.83 1.072z"/><path d="M5.248 16.199a.59.59 0 00.424.105.596.596 0 00.406-.242c.385-.537.982-.96 1.676-1.192.399-.132.815-.199 1.225-.199 1.482 0 2.754.887 4.093 1.397.717.273 1.465.476 2.279.476.342 0 .696-.036 1.063-.118.864-.19 1.605-.6 2.14-1.176.129-.139.245-.284.347-.44a.595.595 0 00-.992-.657c-.046.07-.097.137-.152.203-.372.443-.93.761-1.599.909-.617.135-1.298.095-1.907-.063-.64-.166-1.258-.445-1.915-.74-.7-.314-1.42-.64-2.203-.84a4.667 4.667 0 00-1.156-.14c-.537 0-1.083.087-1.602.26a4.824 4.824 0 00-1.252.629 4.27 4.27 0 00-1.013.996.599.599 0 00.138.831zM16.02 13.438a2.099 2.099 0 100-4.198 2.099 2.099 0 000 4.198z"/></g><defs><clipPath id="clip0"><path fill="#fff" d="M5 5h14v14H5z"/></clipPath></defs></svg>
